;FLAVOR:RepRap
;TIME:7878
;Filament used: 6.1748m
;Layer height: 0.15
;MINX:66.717
;MINY:73.95
;MINZ:0.15
;MAXX:152.28
;MAXY:181.04
;MAXZ:27.9
;Generated with Cura_SteamEngine 4.1.0
T0
M190 S70
M104 S190
M109 S190
M82 ;absolute extrusion mode

;Sliced at: Mon 18-11-2019 14:09:44
;Basic settings: Layer height: 0.15 Walls: 1 Fill: {fill_density}
;Print time: 02:11:19
;Filament used: [6.17]m [18.416661640624998]g
;Filament cost: [0.0]
;M190 S70 ;Uncomment to add your own bed temperature line
;M109 S190 ;Uncomment to add your own temperature line
G21        ;metric values
G90        ;absolute positioning
M82        ;set extruder to absolute mode
M107       ;start with the fan off
G28 X0 Y0  ;move X/Y to min endstops
G28 Z0     ;move Z to min endstops
G1 Z15.0 F120 ;move the platform down 15mm
G92 E0                  ;zero the extruded length
G1 F200 E3              ;extrude 3mm of feed stock
G92 E0                  ;zero the extruded length again
G1 F120
;Put printing message on LCD screen
M117 Printing...
M83 ;relative extrusion mode
G1 F1500 E-6.5
;LAYER_COUNT:186
;LAYER:0
M107
G0 F3600 X105.3 Y111.05 Z0.15
;TYPE:SKIRT
G1 F1500 E6.5
G1 F1800 X105.3 Y113.833 E0.06942
G1 X105.776 Y113.952 E0.01224
G1 X106.519 Y114.221 E0.01971
G1 X107.23 Y114.563 E0.01968
G1 X107.904 Y114.975 E0.01971
G1 X108.532 Y115.453 E0.01969
G1 X109.109 Y115.993 E0.01971
G1 X109.628 Y116.588 E0.0197
G1 X110.085 Y117.232 E0.0197
G1 X110.474 Y117.919 E0.01969
G1 X110.791 Y118.642 E0.01969
G1 X111.034 Y119.394 E0.01971
G1 X111.2 Y120.166 E0.0197
G1 X111.286 Y120.951 E0.0197
G1 X111.3 Y121.413 E0.01153
G1 X111.3 Y136.092 E0.36617
G1 X111.26 Y136.881 E0.01971
G1 X111.141 Y137.661 E0.01968
G1 X110.943 Y138.426 E0.01971
G1 X110.669 Y139.166 E0.01968
G1 X110.321 Y139.875 E0.0197
G1 X109.903 Y140.546 E0.01972
G1 X109.42 Y141.17 E0.01968
G1 X108.877 Y141.743 E0.01969
G1 X108.278 Y142.258 E0.01971
G1 X107.63 Y142.709 E0.01969
G1 X106.939 Y143.093 E0.01972
G1 X106.214 Y143.405 E0.01969
G1 X105.461 Y143.642 E0.01969
G1 X105.3 Y143.675 E0.0041
G1 X105.3 Y155.45 E0.29373
G1 X114.7 Y155.45 E0.23448
G1 X114.7 Y111.05 E1.10756
G1 X105.3 Y111.05 E0.23448
G0 F3600 X104.9 Y110.65
G1 F1800 X104.9 Y114.155 E0.08743
G1 X105.128 Y114.194 E0.00577
G1 X105.869 Y114.402 E0.0192
G1 X106.583 Y114.686 E0.01917
G1 X107.265 Y115.042 E0.01919
G1 X107.906 Y115.468 E0.0192
G1 X108.499 Y115.957 E0.01917
G1 X109.039 Y116.505 E0.01919
G1 X109.518 Y117.107 E0.01919
G1 X109.933 Y117.755 E0.0192
G1 X110.278 Y118.442 E0.01918
G1 X110.549 Y119.162 E0.01919
G1 X110.745 Y119.906 E0.01919
G1 X110.862 Y120.666 E0.01918
G1 X110.9 Y121.413 E0.01866
G1 X110.9 Y136.092 E0.36617
G1 X110.86 Y136.86 E0.01918
G1 X110.741 Y137.62 E0.01919
G1 X110.543 Y138.363 E0.01918
G1 X110.269 Y139.082 E0.01919
G1 X109.922 Y139.768 E0.01918
G1 X109.506 Y140.415 E0.01919
G1 X109.025 Y141.015 E0.01918
G1 X108.484 Y141.562 E0.01919
G1 X107.889 Y142.05 E0.0192
G1 X107.247 Y142.473 E0.01918
G1 X106.564 Y142.828 E0.0192
G1 X105.849 Y143.109 E0.01916
G1 X105.107 Y143.315 E0.01921
G1 X104.9 Y143.35 E0.00524
G1 X104.9 Y155.85 E0.31181
G1 X115.1 Y155.85 E0.25444
G1 X115.1 Y110.65 E1.12752
G1 X104.9 Y110.65 E0.25444
G0 F3600 X104.5 Y110.25
G1 F1800 X104.5 Y114.485 E0.10564
G1 X104.506 Y114.486 E0.00015
G1 X105.239 Y114.633 E0.01865
G1 X105.953 Y114.857 E0.01867
G1 X106.639 Y115.156 E0.01867
G1 X107.288 Y115.527 E0.01865
G1 X107.895 Y115.965 E0.01867
G1 X108.451 Y116.465 E0.01865
G1 X108.951 Y117.021 E0.01865
G1 X109.389 Y117.628 E0.01867
G1 X109.759 Y118.278 E0.01866
G1 X110.058 Y118.964 E0.01867
G1 X110.282 Y119.678 E0.01867
G1 X110.428 Y120.411 E0.01864
G1 X110.5 Y121.413 E0.02506
G1 X110.5 Y136.092 E0.36617
G1 X110.46 Y136.839 E0.01866
G1 X110.341 Y137.577 E0.01865
G1 X110.143 Y138.299 E0.01868
G1 X109.87 Y138.995 E0.01865
G1 X109.523 Y139.658 E0.01867
G1 X109.108 Y140.281 E0.01867
G1 X108.629 Y140.855 E0.01865
G1 X108.092 Y141.376 E0.01866
G1 X107.502 Y141.835 E0.01865
G1 X106.866 Y142.23 E0.01868
G1 X106.192 Y142.554 E0.01865
G1 X105.487 Y142.804 E0.01866
G1 X104.759 Y142.978 E0.01867
G1 X104.5 Y143.011 E0.00651
G1 X104.5 Y156.25 E0.33025
G1 X115.5 Y156.25 E0.2744
G1 X115.5 Y110.25 E1.14747
G1 X104.5 Y110.25 E0.2744
G0 F3600 X104.1 Y109.85
G1 F1800 X104.1 Y114.848 E0.12468
G1 X104.636 Y114.911 E0.01346
G1 X105.343 Y115.076 E0.01811
G1 X106.029 Y115.317 E0.01814
G1 X106.683 Y115.631 E0.0181
G1 X107.299 Y116.016 E0.01812
G1 X107.869 Y116.466 E0.01812
G1 X108.386 Y116.976 E0.01812
G1 X108.844 Y117.54 E0.01812
G1 X109.238 Y118.151 E0.01814
G1 X109.561 Y118.801 E0.01811
G1 X109.812 Y119.483 E0.01813
G1 X109.985 Y120.188 E0.01811
G1 X110.081 Y120.908 E0.01812
G1 X110.1 Y121.413 E0.01261
G1 X110.1 Y136.092 E0.36617
G1 X110.06 Y136.817 E0.01811
G1 X109.941 Y137.534 E0.01813
G1 X109.743 Y138.233 E0.01812
G1 X109.47 Y138.906 E0.01812
G1 X109.125 Y139.545 E0.01811
G1 X108.711 Y140.142 E0.01812
G1 X108.235 Y140.69 E0.01811
G1 X107.701 Y141.183 E0.01813
G1 X107.116 Y141.613 E0.01811
G1 X106.487 Y141.977 E0.01813
G1 X105.822 Y142.27 E0.01813
G1 X105.129 Y142.488 E0.01812
G1 X104.417 Y142.628 E0.0181
G1 X104.1 Y142.655 E0.00794
G1 X104.1 Y156.65 E0.34911
G1 X115.9 Y156.65 E0.29435
G1 X115.9 Y109.85 E1.16743
G1 X104.1 Y109.85 E0.29435
G0 F3600 X103.7 Y109.45
G1 F1800 X103.7 Y115.227 E0.14411
G1 X104.062 Y115.239 E0.00904
G1 X104.759 Y115.342 E0.01758
G1 X105.439 Y115.524 E0.01756
G1 X106.094 Y115.782 E0.01756
G1 X106.715 Y116.112 E0.01754
G1 X107.296 Y116.511 E0.01758
G1 X107.827 Y116.973 E0.01756
G1 X108.302 Y117.492 E0.01755
G1 X108.716 Y118.061 E0.01755
G1 X109.062 Y118.674 E0.01756
G1 X109.337 Y119.323 E0.01758
G1 X109.536 Y119.998 E0.01755
G1 X109.658 Y120.691 E0.01755
G1 X109.7 Y121.413 E0.01804
G1 X109.7 Y136.092 E0.36617
G1 X109.66 Y136.795 E0.01756
G1 X109.541 Y137.489 E0.01756
G1 X109.343 Y138.164 E0.01755
G1 X109.071 Y138.813 E0.01755
G1 X108.726 Y139.427 E0.01757
G1 X108.315 Y139.998 E0.01755
G1 X107.841 Y140.519 E0.01757
G1 X107.311 Y140.983 E0.01757
G1 X106.732 Y141.383 E0.01755
G1 X106.111 Y141.715 E0.01757
G1 X105.457 Y141.975 E0.01756
G1 X104.777 Y142.159 E0.01757
G1 X104.081 Y142.265 E0.01756
G1 X103.7 Y142.279 E0.00951
G1 X103.7 Y157.05 E0.36846
G1 X116.3 Y157.05 E0.31431
G1 X116.3 Y109.45 E1.18739
G1 X103.7 Y109.45 E0.31431
G0 F3600 X103.3 Y109.05
G1 F1800 X103.3 Y115.625 E0.16401
G1 X103.524 Y115.613 E0.0056
G1 X104.204 Y115.656 E0.017
G1 X104.874 Y115.778 E0.01699
G1 X105.524 Y115.978 E0.01696
G1 X106.147 Y116.252 E0.01698
G1 X106.734 Y116.598 E0.017
G1 X107.276 Y117.01 E0.01698
G1 X107.766 Y117.483 E0.01699
G1 X108.197 Y118.01 E0.01698
G1 X108.563 Y118.584 E0.01698
G1 X108.86 Y119.197 E0.01699
G1 X109.083 Y119.841 E0.017
G1 X109.229 Y120.506 E0.01698
G1 X109.3 Y121.413 E0.02269
G1 X109.3 Y136.092 E0.36617
G1 X109.26 Y136.772 E0.01699
G1 X109.141 Y137.442 E0.01697
G1 X108.944 Y138.094 E0.01699
G1 X108.672 Y138.718 E0.01698
G1 X108.328 Y139.306 E0.01699
G1 X107.918 Y139.85 E0.01699
G1 X107.447 Y140.341 E0.01697
G1 X106.922 Y140.775 E0.01699
G1 X106.35 Y141.144 E0.01698
G1 X105.738 Y141.443 E0.01699
G1 X105.096 Y141.668 E0.01697
G1 X104.431 Y141.817 E0.017
G1 X103.754 Y141.886 E0.01698
G1 X103.3 Y141.879 E0.01133
G1 X103.3 Y157.45 E0.38842
G1 X116.7 Y157.45 E0.33426
G1 X116.7 Y109.05 E1.20734
G1 X103.3 Y109.05 E0.33426
G0 F3600 X102.9 Y108.65
G1 F1800 X102.9 Y116.053 E0.18467
G1 X103.027 Y116.034 E0.0032
G1 X103.684 Y116.016 E0.0164
G1 X104.338 Y116.078 E0.01639
G1 X104.98 Y116.22 E0.0164
G1 X105.599 Y116.438 E0.01637
G1 X106.188 Y116.73 E0.0164
G1 X106.737 Y117.091 E0.01639
G1 X107.238 Y117.516 E0.01639
G1 X107.683 Y117.998 E0.01636
G1 X108.067 Y118.532 E0.01641
G1 X108.383 Y119.108 E0.01639
G1 X108.627 Y119.718 E0.01639
G1 X108.795 Y120.353 E0.01639
G1 X108.884 Y121.004 E0.01639
G1 X108.9 Y121.413 E0.01021
G1 X108.9 Y136.092 E0.36617
G1 X108.86 Y136.748 E0.01639
G1 X108.741 Y137.394 E0.01639
G1 X108.544 Y138.021 E0.01639
G1 X108.272 Y138.619 E0.01639
G1 X107.93 Y139.18 E0.01639
G1 X107.522 Y139.695 E0.01639
G1 X107.055 Y140.157 E0.01639
G1 X106.535 Y140.558 E0.01638
G1 X105.971 Y140.894 E0.01638
G1 X105.369 Y141.158 E0.0164
G1 X104.74 Y141.348 E0.01639
G1 X104.093 Y141.459 E0.01638
G1 X103.437 Y141.492 E0.01638
G1 X102.9 Y141.453 E0.01343
G1 X102.9 Y157.85 E0.40902
G1 X117.1 Y157.85 E0.35422
G1 X117.1 Y108.65 E1.2273
G1 X102.9 Y108.65 E0.35422
G0 F3600 X102.5 Y108.25
G1 F1800 X102.5 Y116.13 E0.19657
G1 X102.475 Y116.525 E0.00987
G1 X102.578 Y116.499 E0.00265
G1 X103.205 Y116.422 E0.01576
G1 X103.837 Y116.424 E0.01577
G1 X104.464 Y116.507 E0.01578
G1 X105.075 Y116.668 E0.01576
G1 X105.662 Y116.904 E0.01578
G1 X106.213 Y117.213 E0.01576
G1 X106.721 Y117.589 E0.01577
G1 X107.178 Y118.026 E0.01577
G1 X107.576 Y118.517 E0.01577
G1 X107.909 Y119.055 E0.01578
G1 X108.171 Y119.63 E0.01576
G1 X108.359 Y120.234 E0.01578
G1 X108.469 Y120.856 E0.01576
G1 X108.5 Y121.413 E0.01392
G1 X108.5 Y136.092 E0.36617
G1 X108.46 Y136.723 E0.01577
G1 X108.341 Y137.344 E0.01577
G1 X108.144 Y137.944 E0.01575
G1 X107.873 Y138.516 E0.01579
G1 X107.533 Y139.048 E0.01575
G1 X107.127 Y139.533 E0.01578
G1 X106.664 Y139.963 E0.01576
G1 X106.15 Y140.332 E0.01578
G1 X105.594 Y140.632 E0.01576
G1 X105.005 Y140.86 E0.01576
G1 X104.391 Y141.012 E0.01578
G1 X103.763 Y141.085 E0.01577
G1 X103.131 Y141.078 E0.01577
G1 X102.505 Y140.992 E0.01576
G1 X102.47 Y140.983 E0.0009
G1 X102.5 Y141.37 E0.00968
G1 X102.5 Y158.25 E0.42107
G1 X117.5 Y158.25 E0.37418
G1 X117.5 Y108.25 E1.24726
G1 X102.5 Y108.25 E0.37418
G0 F3600 X102.1 Y107.85
G1 F1800 X102.1 Y116.13 E0.20655
G1 X102.06 Y116.735 E0.01512
G1 X101.991 Y117.077 E0.0087
G1 X102.183 Y117.006 E0.00511
G1 X102.774 Y116.871 E0.01512
G1 X103.377 Y116.815 E0.01511
G1 X103.983 Y116.838 E0.01513
G1 X104.581 Y116.942 E0.01514
G1 X105.159 Y117.123 E0.01511
G1 X105.709 Y117.378 E0.01512
G1 X106.221 Y117.704 E0.01514
G1 X106.685 Y118.094 E0.01512
G1 X107.094 Y118.542 E0.01513
G1 X107.44 Y119.039 E0.01511
G1 X107.718 Y119.578 E0.01513
G1 X107.923 Y120.149 E0.01513
G1 X108.051 Y120.741 E0.01511
G1 X108.1 Y121.413 E0.01681
G1 X108.1 Y136.092 E0.36617
G1 X108.06 Y136.697 E0.01512
G1 X107.941 Y137.291 E0.01511
G1 X107.745 Y137.865 E0.01513
G1 X107.474 Y138.408 E0.01514
G1 X107.135 Y138.911 E0.01513
G1 X106.733 Y139.364 E0.01511
G1 X106.275 Y139.761 E0.01512
G1 X105.768 Y140.094 E0.01513
G1 X105.222 Y140.358 E0.01513
G1 X104.646 Y140.547 E0.01512
G1 X104.05 Y140.659 E0.01513
G1 X103.445 Y140.692 E0.01511
G1 X102.84 Y140.644 E0.01514
G1 X102.247 Y140.518 E0.01512
G1 X101.993 Y140.428 E0.00672
G1 X102.064 Y140.792 E0.00925
G1 X102.1 Y141.37 E0.01445
G1 X102.1 Y158.65 E0.43105
G1 X117.9 Y158.65 E0.39413
G1 X117.9 Y107.85 E1.26721
G1 X102.1 Y107.85 E0.39413
G0 F3600 X101.7 Y107.45
G1 F1800 X101.7 Y116.13 E0.21652
G1 X101.66 Y116.708 E0.01445
G1 X101.541 Y117.275 E0.01445
G1 X101.35 Y117.807 E0.0141
G1 X101.849 Y117.551 E0.01399
G1 X102.396 Y117.361 E0.01444
G1 X102.964 Y117.247 E0.01445
G1 X103.543 Y117.213 E0.01447
G1 X104.12 Y117.259 E0.01444
G1 X104.686 Y117.384 E0.01446
G1 X105.229 Y117.585 E0.01444
G1 X105.739 Y117.86 E0.01445
G1 X106.207 Y118.202 E0.01446
G1 X106.623 Y118.605 E0.01445
G1 X106.98 Y119.061 E0.01445
G1 X107.27 Y119.562 E0.01444
G1 X107.489 Y120.099 E0.01447
G1 X107.632 Y120.66 E0.01444
G1 X107.7 Y121.413 E0.01886
G1 X107.7 Y136.092 E0.36617
G1 X107.66 Y136.67 E0.01445
G1 X107.541 Y137.237 E0.01445
G1 X107.345 Y137.782 E0.01445
G1 X107.076 Y138.295 E0.01445
G1 X106.739 Y138.766 E0.01445
G1 X106.34 Y139.186 E0.01445
G1 X105.887 Y139.548 E0.01446
G1 X105.389 Y139.843 E0.01444
G1 X104.855 Y140.068 E0.01445
G1 X104.295 Y140.216 E0.01445
G1 X103.72 Y140.286 E0.01445
G1 X103.141 Y140.277 E0.01444
G1 X102.568 Y140.187 E0.01447
G1 X102.013 Y140.02 E0.01446
G1 X101.487 Y139.778 E0.01444
G1 X101.337 Y139.682 E0.00444
G1 X101.414 Y139.846 E0.00452
G1 X101.586 Y140.399 E0.01445
G1 X101.681 Y140.971 E0.01446
G1 X101.7 Y141.37 E0.00996
G1 X101.7 Y159.05 E0.44103
G1 X118.3 Y159.05 E0.41409
G1 X118.3 Y107.45 E1.28717
G1 X101.7 Y107.45 E0.41409
G0 F3600 X101.3 Y107.05
G1 F1800 X101.3 Y116.13 E0.2265
G1 X101.26 Y116.68 E0.01376
G1 X101.141 Y117.218 E0.01374
G1 X100.945 Y117.733 E0.01375
G1 X100.677 Y118.214 E0.01374
G1 X100.187 Y118.817 E0.01938
G1 X100.07 Y118.934 E0.00413
G1 X99.653 Y119.294 E0.01374
G1 X99.189 Y119.591 E0.01374
G1 X98.686 Y119.817 E0.01376
G1 X98.156 Y119.968 E0.01375
G1 X97.383 Y120.047 E0.01938
G1 X90.617 Y120.047 E0.16878
G1 X90.067 Y120.007 E0.01376
G1 X89.529 Y119.888 E0.01374
G1 X89.014 Y119.692 E0.01375
G1 X88.533 Y119.424 E0.01374
G1 X87.93 Y118.934 E0.01938
G1 X87.813 Y118.817 E0.00413
G1 X87.453 Y118.4 E0.01374
G1 X87.156 Y117.936 E0.01374
G1 X86.93 Y117.433 E0.01376
G1 X86.779 Y116.903 E0.01375
G1 X86.7 Y116.13 E0.01938
G1 X86.7 Y107.609 E0.21256
G1 X85.488 Y108.242 E0.03411
G1 X84.982 Y108.461 E0.01375
G1 X84.361 Y108.621 E0.016
G1 X82.205 Y108.985 E0.05454
G1 X81.656 Y109.037 E0.01376
G1 X81.013 Y108.997 E0.01607
G1 X78.793 Y108.667 E0.05599
G1 X78.256 Y108.546 E0.01373
G1 X77.635 Y108.298 E0.01668
G1 X75.733 Y107.335 E0.05318
G1 X75.261 Y107.051 E0.01374
G1 X74.79 Y106.659 E0.01529
G1 X73.228 Y105.128 E0.05456
G1 X72.864 Y104.715 E0.01373
G1 X72.52 Y104.174 E0.01599
G1 X71.508 Y102.238 E0.05449
G1 X71.289 Y101.733 E0.01373
G1 X71.129 Y101.111 E0.01602
G1 X70.765 Y98.955 E0.05454
G1 X70.713 Y98.406 E0.01376
G1 X70.753 Y97.765 E0.01602
G1 X71.074 Y95.6 E0.0546
G1 X71.194 Y95.062 E0.01375
G1 X71.428 Y94.469 E0.0159
G1 X72.399 Y92.51 E0.05454
G1 X72.679 Y92.036 E0.01373
G1 X73.092 Y91.537 E0.01616
G1 X74.66 Y89.939 E0.05585
G1 X75.073 Y89.574 E0.01375
G1 X75.64 Y89.218 E0.0167
G1 X77.589 Y88.22 E0.05462
G1 X78.096 Y88.005 E0.01374
G1 X78.72 Y87.85 E0.01604
G1 X80.838 Y87.511 E0.05351
G1 X81.436 Y87.463 E0.01497
G1 X93.703 Y87.455 E0.306
G1 X93.702 Y81.867 E0.13939
G1 X93.742 Y81.318 E0.01373
G1 X93.861 Y80.78 E0.01374
G1 X94.056 Y80.265 E0.01374
G1 X94.324 Y79.783 E0.01376
G1 X94.815 Y79.18 E0.0194
G1 X94.932 Y79.063 E0.00413
G1 X95.349 Y78.703 E0.01374
G1 X95.813 Y78.406 E0.01374
G1 X96.316 Y78.18 E0.01376
G1 X96.846 Y78.029 E0.01375
G1 X97.619 Y77.95 E0.01938
G1 X122.381 Y77.95 E0.61769
G1 X122.931 Y77.99 E0.01376
G1 X123.469 Y78.109 E0.01374
G1 X123.984 Y78.305 E0.01375
G1 X124.465 Y78.573 E0.01374
G1 X125.068 Y79.063 E0.01938
G1 X125.185 Y79.18 E0.00413
G1 X125.545 Y79.597 E0.01374
G1 X125.842 Y80.061 E0.01374
G1 X126.068 Y80.564 E0.01376
G1 X126.219 Y81.094 E0.01375
G1 X126.298 Y81.867 E0.01938
G1 X126.298 Y87.452 E0.13932
G1 X137.49 Y87.451 E0.27919
G1 X138.084 Y87.497 E0.01486
G1 X140.187 Y87.829 E0.05311
G1 X140.723 Y87.955 E0.01374
G1 X141.285 Y88.18 E0.0151
G1 X143.294 Y89.178 E0.05596
G1 X143.768 Y89.458 E0.01373
G1 X144.285 Y89.889 E0.01679
G1 X145.832 Y91.43 E0.05447
G1 X146.193 Y91.846 E0.01374
G1 X146.532 Y92.39 E0.01599
G1 X147.53 Y94.339 E0.05462
G1 X147.745 Y94.846 E0.01374
G1 X147.9 Y95.468 E0.01599
G1 X148.239 Y97.576 E0.05326
G1 X148.287 Y98.125 E0.01375
G1 X148.246 Y98.735 E0.01525
G1 X147.918 Y100.952 E0.05591
G1 X147.798 Y101.49 E0.01375
G1 X147.549 Y102.113 E0.01674
G1 X146.558 Y104.07 E0.05472
G1 X146.274 Y104.542 E0.01374
G1 X145.862 Y105.033 E0.01599
G1 X144.322 Y106.581 E0.05447
G1 X143.906 Y106.942 E0.01374
G1 X143.359 Y107.284 E0.01609
G1 X141.41 Y108.281 E0.05461
G1 X140.902 Y108.496 E0.01376
G1 X140.284 Y108.649 E0.01588
G1 X138.121 Y108.998 E0.05465
G1 X137.572 Y109.047 E0.01375
G1 X136.93 Y109.002 E0.01605
G1 X134.822 Y108.673 E0.05322
G1 X134.285 Y108.548 E0.01375
G1 X133.716 Y108.321 E0.01528
G1 X133.3 Y108.114 E0.01159
G1 X133.3 Y112.45 E0.10816
G1 X138.383 Y112.45 E0.1268
G1 X138.933 Y112.49 E0.01376
G1 X139.471 Y112.609 E0.01374
G1 X139.986 Y112.805 E0.01375
G1 X140.467 Y113.073 E0.01374
G1 X141.07 Y113.563 E0.01938
G1 X141.187 Y113.68 E0.00413
G1 X141.547 Y114.097 E0.01374
G1 X141.844 Y114.561 E0.01374
G1 X142.07 Y115.064 E0.01376
G1 X142.221 Y115.594 E0.01375
G1 X142.3 Y116.367 E0.01938
G1 X142.3 Y141.133 E0.61779
G1 X142.26 Y141.683 E0.01376
G1 X142.141 Y142.221 E0.01374
G1 X141.945 Y142.736 E0.01375
G1 X141.677 Y143.217 E0.01374
