;FLAVOR:RepRap
;TIME:6138
;Filament used: 4.78438m
;Layer height: 0.15
;MINX:67.7
;MINY:131.994
;MINZ:0.15
;MAXX:151.3
;MAXY:226.594
;MAXZ:25.95
;Generated with Cura_SteamEngine 4.1.0
T0
M190 S70
M104 S190
M109 S190
M82 ;absolute extrusion mode

;Sliced at: Thu 14-11-2019 08:42:52
;Basic settings: Layer height: 0.15 Walls: 1 Fill: {fill_density}
;Print time: 01:42:18
;Filament used: [4.78]m [14.26964875]g
;Filament cost: [0.0]
;M190 S70 ;Uncomment to add your own bed temperature line
;M109 S190 ;Uncomment to add your own temperature line
G21        ;metric values
G90        ;absolute positioning
M82        ;set extruder to absolute mode
M107       ;start with the fan off
G28 X0 Y0  ;move X/Y to min endstops
G28 Z0     ;move Z to min endstops
G1 Z15.0 F120 ;move the platform down 15mm
G92 E0                  ;zero the extruded length
G1 F200 E3              ;extrude 3mm of feed stock
G92 E0                  ;zero the extruded length again
G1 F120
;Put printing message on LCD screen
M117 Printing...
M83 ;relative extrusion mode
G1 F1500 E-6.5
;LAYER_COUNT:173
;LAYER:0
M107
G0 F3600 X71.324 Y133.282 Z0.15
;TYPE:SKIRT
G1 F1500 E6.5
G1 F1800 X72.004 Y132.881 E0.01969
G1 X72.722 Y132.551 E0.01971
G1 X73.469 Y132.296 E0.01969
G1 X74.238 Y132.117 E0.0197
G1 X75.022 Y132.017 E0.01972
G1 X75.617 Y131.994 E0.01485
G1 X89.38 Y131.994 E0.34332
G1 X90.169 Y132.034 E0.01971
G1 X90.949 Y132.153 E0.01968
G1 X91.714 Y132.351 E0.01971
G1 X92.454 Y132.625 E0.01968
G1 X93.163 Y132.973 E0.0197
G1 X93.834 Y133.391 E0.01972
G1 X94.458 Y133.874 E0.01968
G1 X94.895 Y134.279 E0.01486
G1 X95.012 Y134.396 E0.00413
G1 X95.542 Y134.982 E0.01971
G1 X96.009 Y135.618 E0.01968
G1 X96.41 Y136.298 E0.01969
G1 X96.74 Y137.016 E0.01971
G1 X96.995 Y137.763 E0.01969
G1 X97.174 Y138.532 E0.0197
G1 X97.274 Y139.316 E0.01972
G1 X97.297 Y139.911 E0.01485
G1 X97.297 Y141.996 E0.05201
G1 X121.703 Y141.996 E0.60881
G1 X121.703 Y139.911 E0.05201
G1 X121.743 Y139.122 E0.01971
G1 X121.862 Y138.342 E0.01968
G1 X122.06 Y137.577 E0.01971
G1 X122.334 Y136.837 E0.01968
G1 X122.682 Y136.128 E0.0197
G1 X123.1 Y135.457 E0.01972
G1 X123.583 Y134.833 E0.01968
G1 X123.988 Y134.396 E0.01486
G1 X124.105 Y134.279 E0.00413
G1 X124.691 Y133.749 E0.01971
G1 X125.327 Y133.282 E0.01968
G1 X126.007 Y132.881 E0.01969
G1 X126.725 Y132.551 E0.01971
G1 X127.472 Y132.296 E0.01969
G1 X128.241 Y132.117 E0.0197
G1 X129.025 Y132.017 E0.01972
G1 X129.62 Y131.994 E0.01485
G1 X143.383 Y131.994 E0.34332
G1 X144.172 Y132.034 E0.01971
G1 X144.952 Y132.153 E0.01968
G1 X145.717 Y132.351 E0.01971
G1 X146.457 Y132.625 E0.01968
G1 X147.166 Y132.973 E0.0197
G1 X147.837 Y133.391 E0.01972
G1 X148.461 Y133.874 E0.01968
G1 X148.898 Y134.279 E0.01486
G1 X149.015 Y134.396 E0.00413
G1 X149.545 Y134.982 E0.01971
G1 X150.012 Y135.618 E0.01968
G1 X150.413 Y136.298 E0.01969
G1 X150.743 Y137.016 E0.01971
G1 X150.998 Y137.763 E0.01969
G1 X151.177 Y138.532 E0.0197
G1 X151.277 Y139.316 E0.01972
G1 X151.3 Y139.911 E0.01485
G1 X151.3 Y155.675 E0.39323
G1 X151.26 Y156.464 E0.01971
G1 X151.141 Y157.244 E0.01968
G1 X150.943 Y158.009 E0.01971
G1 X150.669 Y158.749 E0.01968
G1 X150.321 Y159.458 E0.0197
G1 X149.903 Y160.129 E0.01972
G1 X149.42 Y160.753 E0.01968
G1 X149.015 Y161.19 E0.01486
G1 X148.898 Y161.307 E0.00413
G1 X148.312 Y161.837 E0.01971
G1 X147.676 Y162.304 E0.01968
G1 X146.996 Y162.705 E0.01969
G1 X146.278 Y163.035 E0.01971
G1 X145.531 Y163.29 E0.01969
G1 X144.762 Y163.469 E0.0197
G1 X143.978 Y163.569 E0.01972
G1 X143.383 Y163.592 E0.01485
G1 X138.298 Y163.592 E0.12685
G1 X138.298 Y194.996 E0.78338
G1 X143.383 Y194.996 E0.12685
G1 X144.172 Y195.036 E0.01971
G1 X144.952 Y195.155 E0.01968
G1 X145.717 Y195.353 E0.01971
G1 X146.457 Y195.627 E0.01968
G1 X147.166 Y195.975 E0.0197
G1 X147.837 Y196.393 E0.01972
G1 X148.461 Y196.876 E0.01968
G1 X148.898 Y197.281 E0.01486
G1 X149.015 Y197.398 E0.00413
G1 X149.545 Y197.984 E0.01971
G1 X150.012 Y198.62 E0.01968
G1 X150.413 Y199.3 E0.01969
G1 X150.743 Y200.018 E0.01971
G1 X150.998 Y200.765 E0.01969
G1 X151.177 Y201.534 E0.0197
G1 X151.277 Y202.318 E0.01972
G1 X151.3 Y202.913 E0.01485
G1 X151.3 Y218.677 E0.39323
G1 X151.26 Y219.466 E0.01971
G1 X151.141 Y220.246 E0.01968
G1 X150.943 Y221.011 E0.01971
G1 X150.669 Y221.751 E0.01968
G1 X150.321 Y222.46 E0.0197
G1 X149.903 Y223.131 E0.01972
G1 X149.42 Y223.755 E0.01968
G1 X149.015 Y224.192 E0.01486
G1 X148.898 Y224.309 E0.00413
G1 X148.312 Y224.839 E0.01971
G1 X147.676 Y225.306 E0.01968
G1 X146.996 Y225.707 E0.01969
G1 X146.278 Y226.037 E0.01971
G1 X145.531 Y226.292 E0.01969
G1 X144.762 Y226.471 E0.0197
G1 X143.978 Y226.571 E0.01972
G1 X143.383 Y226.594 E0.01485
G1 X127.62 Y226.594 E0.39321
G1 X126.831 Y226.554 E0.01971
G1 X126.051 Y226.435 E0.01968
G1 X125.286 Y226.237 E0.01971
G1 X124.546 Y225.963 E0.01968
G1 X123.837 Y225.615 E0.0197
G1 X123.166 Y225.197 E0.01972
G1 X122.542 Y224.714 E0.01968
G1 X122.105 Y224.309 E0.01486
G1 X121.988 Y224.192 E0.00413
G1 X121.458 Y223.606 E0.01971
G1 X120.991 Y222.97 E0.01968
G1 X120.59 Y222.29 E0.01969
G1 X120.26 Y221.572 E0.01971
G1 X120.005 Y220.825 E0.01969
G1 X119.826 Y220.056 E0.0197
G1 X119.726 Y219.272 E0.01972
G1 X119.703 Y218.677 E0.01485
G1 X119.703 Y216.592 E0.05201
G1 X98.298 Y216.592 E0.53395
G1 X98.298 Y218.677 E0.05201
G1 X98.258 Y219.466 E0.01971
G1 X98.139 Y220.246 E0.01968
G1 X97.941 Y221.011 E0.01971
G1 X97.667 Y221.751 E0.01968
G1 X97.319 Y222.46 E0.0197
G1 X96.901 Y223.131 E0.01972
G1 X96.418 Y223.755 E0.01968
G1 X96.013 Y224.192 E0.01486
G1 X95.896 Y224.309 E0.00413
G1 X95.31 Y224.839 E0.01971
G1 X94.674 Y225.306 E0.01968
G1 X93.994 Y225.707 E0.01969
G1 X93.276 Y226.037 E0.01971
G1 X92.529 Y226.292 E0.01969
G1 X91.76 Y226.471 E0.0197
G1 X90.976 Y226.571 E0.01972
G1 X90.381 Y226.594 E0.01485
G1 X75.617 Y226.594 E0.36829
G1 X74.828 Y226.554 E0.01971
G1 X74.048 Y226.435 E0.01968
G1 X73.283 Y226.237 E0.01971
G1 X72.543 Y225.963 E0.01968
G1 X71.834 Y225.615 E0.0197
G1 X71.163 Y225.197 E0.01972
G1 X70.539 Y224.714 E0.01968
G1 X70.102 Y224.309 E0.01486
G1 X69.985 Y224.192 E0.00413
G1 X69.455 Y223.606 E0.01971
G1 X68.988 Y222.97 E0.01968
G1 X68.587 Y222.29 E0.01969
G1 X68.257 Y221.572 E0.01971
G1 X68.002 Y220.825 E0.01969
G1 X67.823 Y220.056 E0.0197
G1 X67.723 Y219.272 E0.01972
G1 X67.7 Y218.677 E0.01485
G1 X67.7 Y202.913 E0.39323
G1 X67.74 Y202.124 E0.01971
G1 X67.859 Y201.344 E0.01968
G1 X68.057 Y200.579 E0.01971
G1 X68.331 Y199.839 E0.01968
G1 X68.679 Y199.13 E0.0197
G1 X69.097 Y198.459 E0.01972
G1 X69.58 Y197.835 E0.01968
G1 X69.985 Y197.398 E0.01486
G1 X70.102 Y197.281 E0.00413
G1 X70.688 Y196.751 E0.01971
G1 X71.324 Y196.284 E0.01968
G1 X72.004 Y195.883 E0.01969
G1 X72.722 Y195.553 E0.01971
G1 X73.469 Y195.298 E0.01969
G1 X74.238 Y195.119 E0.0197
G1 X75.022 Y195.019 E0.01972
G1 X75.617 Y194.996 E0.01485
G1 X79.702 Y194.996 E0.1019
G1 X79.702 Y163.592 E0.78338
G1 X75.617 Y163.592 E0.1019
G1 X74.828 Y163.552 E0.01971
G1 X74.048 Y163.433 E0.01968
G1 X73.283 Y163.235 E0.01971
G1 X72.543 Y162.961 E0.01968
G1 X71.834 Y162.613 E0.0197
G1 X71.163 Y162.195 E0.01972
G1 X70.539 Y161.712 E0.01968
G1 X70.102 Y161.307 E0.01486
G1 X69.985 Y161.19 E0.00413
G1 X69.455 Y160.604 E0.01971
G1 X68.988 Y159.968 E0.01968
G1 X68.587 Y159.288 E0.01969
G1 X68.257 Y158.57 E0.01971
G1 X68.002 Y157.823 E0.01969
G1 X67.823 Y157.054 E0.0197
G1 X67.723 Y156.27 E0.01972
G1 X67.7 Y155.675 E0.01485
G1 X67.7 Y139.911 E0.39323
G1 X67.74 Y139.122 E0.01971
G1 X67.859 Y138.342 E0.01968
G1 X68.057 Y137.577 E0.01971
G1 X68.331 Y136.837 E0.01968
G1 X68.679 Y136.128 E0.0197
G1 X69.097 Y135.457 E0.01972
G1 X69.58 Y134.833 E0.01968
G1 X69.985 Y134.396 E0.01486
G1 X70.102 Y134.279 E0.00413
G1 X70.688 Y133.749 E0.01971
G1 X71.324 Y133.282 E0.01968
G0 F3600 X71.578 Y133.594
G1 F1800 X72.243 Y133.208 E0.01918
G1 X72.945 Y132.893 E0.01919
G1 X73.676 Y132.653 E0.01919
G1 X74.427 Y132.49 E0.01917
G1 X75.192 Y132.406 E0.0192
G1 X75.617 Y132.394 E0.01061
G1 X89.38 Y132.394 E0.34332
G1 X90.148 Y132.434 E0.01918
G1 X90.908 Y132.553 E0.01919
G1 X91.651 Y132.751 E0.01918
G1 X92.37 Y133.025 E0.01919
G1 X93.056 Y133.372 E0.01918
G1 X93.703 Y133.788 E0.01919
G1 X94.303 Y134.269 E0.01918
G1 X94.613 Y134.561 E0.01062
G1 X94.73 Y134.678 E0.00413
G1 X95.244 Y135.25 E0.01918
G1 X95.697 Y135.872 E0.01919
G1 X96.083 Y136.537 E0.01918
G1 X96.398 Y137.239 E0.01919
G1 X96.638 Y137.97 E0.01919
G1 X96.801 Y138.721 E0.01917
G1 X96.885 Y139.486 E0.0192
G1 X96.897 Y139.911 E0.01061
G1 X96.897 Y142.396 E0.06199
G1 X122.103 Y142.396 E0.62877
G1 X122.103 Y139.911 E0.06199
G1 X122.143 Y139.143 E0.01918
G1 X122.262 Y138.383 E0.01919
G1 X122.46 Y137.64 E0.01918
G1 X122.734 Y136.921 E0.01919
G1 X123.081 Y136.235 E0.01918
G1 X123.497 Y135.588 E0.01919
G1 X123.978 Y134.988 E0.01918
G1 X124.27 Y134.678 E0.01062
G1 X124.387 Y134.561 E0.00413
G1 X124.959 Y134.047 E0.01918
G1 X125.581 Y133.594 E0.01919
G1 X126.246 Y133.208 E0.01918
G1 X126.948 Y132.893 E0.01919
G1 X127.679 Y132.653 E0.01919
G1 X128.43 Y132.49 E0.01917
G1 X129.195 Y132.406 E0.0192
G1 X129.62 Y132.394 E0.01061
G1 X143.383 Y132.394 E0.34332
G1 X144.151 Y132.434 E0.01918
G1 X144.911 Y132.553 E0.01919
G1 X145.654 Y132.751 E0.01918
G1 X146.373 Y133.025 E0.01919
G1 X147.059 Y133.372 E0.01918
G1 X147.706 Y133.788 E0.01919
G1 X148.306 Y134.269 E0.01918
G1 X148.616 Y134.561 E0.01062
G1 X148.733 Y134.678 E0.00413
G1 X149.247 Y135.25 E0.01918
G1 X149.7 Y135.872 E0.01919
G1 X150.086 Y136.537 E0.01918
G1 X150.401 Y137.239 E0.01919
G1 X150.641 Y137.97 E0.01919
G1 X150.804 Y138.721 E0.01917
G1 X150.888 Y139.486 E0.0192
G1 X150.9 Y139.911 E0.01061
G1 X150.9 Y155.675 E0.39323
G1 X150.86 Y156.443 E0.01918
G1 X150.741 Y157.203 E0.01919
G1 X150.543 Y157.946 E0.01918
G1 X150.269 Y158.665 E0.01919
G1 X149.922 Y159.351 E0.01918
G1 X149.506 Y159.998 E0.01919
G1 X149.025 Y160.598 E0.01918
G1 X148.733 Y160.908 E0.01062
G1 X148.616 Y161.025 E0.00413
G1 X148.044 Y161.539 E0.01918
G1 X147.422 Y161.992 E0.01919
G1 X146.757 Y162.378 E0.01918
G1 X146.055 Y162.693 E0.01919
G1 X145.324 Y162.933 E0.01919
G1 X144.573 Y163.096 E0.01917
G1 X143.808 Y163.18 E0.0192
G1 X143.383 Y163.192 E0.01061
G1 X137.898 Y163.192 E0.13682
G1 X137.898 Y195.396 E0.80333
G1 X143.383 Y195.396 E0.13682
G1 X144.151 Y195.436 E0.01918
G1 X144.911 Y195.555 E0.01919
G1 X145.654 Y195.753 E0.01918
G1 X146.373 Y196.027 E0.01919
G1 X147.059 Y196.374 E0.01918
G1 X147.706 Y196.79 E0.01919
G1 X148.306 Y197.271 E0.01918
G1 X148.616 Y197.563 E0.01062
G1 X148.733 Y197.68 E0.00413
G1 X149.247 Y198.252 E0.01918
G1 X149.7 Y198.874 E0.01919
G1 X150.086 Y199.539 E0.01918
G1 X150.401 Y200.241 E0.01919
G1 X150.641 Y200.972 E0.01919
G1 X150.804 Y201.723 E0.01917
G1 X150.888 Y202.488 E0.0192
G1 X150.9 Y202.913 E0.01061
G1 X150.9 Y218.677 E0.39323
G1 X150.86 Y219.445 E0.01918
G1 X150.741 Y220.205 E0.01919
G1 X150.543 Y220.948 E0.01918
G1 X150.269 Y221.667 E0.01919
G1 X149.922 Y222.353 E0.01918
G1 X149.506 Y223 E0.01919
G1 X149.025 Y223.6 E0.01918
G1 X148.733 Y223.91 E0.01062
G1 X148.616 Y224.027 E0.00413
G1 X148.044 Y224.541 E0.01918
G1 X147.422 Y224.994 E0.01919
G1 X146.757 Y225.38 E0.01918
G1 X146.055 Y225.695 E0.01919
G1 X145.324 Y225.935 E0.01919
G1 X144.573 Y226.098 E0.01917
G1 X143.808 Y226.182 E0.0192
G1 X143.383 Y226.194 E0.01061
G1 X127.62 Y226.194 E0.39321
G1 X126.852 Y226.154 E0.01918
G1 X126.092 Y226.035 E0.01919
G1 X125.349 Y225.837 E0.01918
G1 X124.63 Y225.563 E0.01919
G1 X123.944 Y225.216 E0.01918
G1 X123.297 Y224.8 E0.01919
G1 X122.697 Y224.319 E0.01918
G1 X122.387 Y224.027 E0.01062
G1 X122.27 Y223.91 E0.00413
G1 X121.756 Y223.338 E0.01918
G1 X121.303 Y222.716 E0.01919
G1 X120.917 Y222.051 E0.01918
G1 X120.602 Y221.349 E0.01919
G1 X120.362 Y220.618 E0.01919
G1 X120.199 Y219.867 E0.01917
G1 X120.115 Y219.102 E0.0192
G1 X120.103 Y218.677 E0.01061
G1 X120.103 Y216.192 E0.06199
G1 X97.898 Y216.192 E0.55391
G1 X97.898 Y218.677 E0.06199
G1 X97.858 Y219.445 E0.01918
G1 X97.739 Y220.205 E0.01919
G1 X97.541 Y220.948 E0.01918
G1 X97.267 Y221.667 E0.01919
G1 X96.92 Y222.353 E0.01918
G1 X96.504 Y223 E0.01919
G1 X96.023 Y223.6 E0.01918
G1 X95.731 Y223.91 E0.01062
G1 X95.614 Y224.027 E0.00413
G1 X95.042 Y224.541 E0.01918
G1 X94.42 Y224.994 E0.01919
G1 X93.755 Y225.38 E0.01918
G1 X93.053 Y225.695 E0.01919
G1 X92.322 Y225.935 E0.01919
G1 X91.571 Y226.098 E0.01917
G1 X90.806 Y226.182 E0.0192
G1 X90.381 Y226.194 E0.01061
G1 X75.617 Y226.194 E0.36829
G1 X74.849 Y226.154 E0.01918
G1 X74.089 Y226.035 E0.01919
G1 X73.346 Y225.837 E0.01918
G1 X72.627 Y225.563 E0.01919
G1 X71.941 Y225.216 E0.01918
G1 X71.294 Y224.8 E0.01919
G1 X70.694 Y224.319 E0.01918
G1 X70.384 Y224.027 E0.01062
G1 X70.267 Y223.91 E0.00413
G1 X69.753 Y223.338 E0.01918
G1 X69.3 Y222.716 E0.01919
G1 X68.914 Y222.051 E0.01918
G1 X68.599 Y221.349 E0.01919
G1 X68.359 Y220.618 E0.01919
G1 X68.196 Y219.867 E0.01917
G1 X68.112 Y219.102 E0.0192
G1 X68.1 Y218.677 E0.01061
G1 X68.1 Y202.913 E0.39323
G1 X68.14 Y202.145 E0.01918
G1 X68.259 Y201.385 E0.01919
G1 X68.457 Y200.642 E0.01918
G1 X68.731 Y199.923 E0.01919
G1 X69.078 Y199.237 E0.01918
G1 X69.494 Y198.59 E0.01919
G1 X69.975 Y197.99 E0.01918
G1 X70.267 Y197.68 E0.01062
G1 X70.384 Y197.563 E0.00413
G1 X70.956 Y197.049 E0.01918
G1 X71.578 Y196.596 E0.01919
G1 X72.243 Y196.21 E0.01918
G1 X72.945 Y195.895 E0.01919
G1 X73.676 Y195.655 E0.01919
G1 X74.427 Y195.492 E0.01917
G1 X75.192 Y195.408 E0.0192
G1 X75.617 Y195.396 E0.01061
G1 X80.102 Y195.396 E0.11188
G1 X80.102 Y163.192 E0.80333
G1 X75.617 Y163.192 E0.11188
G1 X74.849 Y163.152 E0.01918
G1 X74.089 Y163.033 E0.01919
G1 X73.346 Y162.835 E0.01918
G1 X72.627 Y162.561 E0.01919
G1 X71.941 Y162.214 E0.01918
G1 X71.294 Y161.798 E0.01919
G1 X70.694 Y161.317 E0.01918
G1 X70.384 Y161.025 E0.01062
G1 X70.267 Y160.908 E0.00413
G1 X69.753 Y160.336 E0.01918
G1 X69.3 Y159.714 E0.01919
G1 X68.914 Y159.049 E0.01918
G1 X68.599 Y158.347 E0.01919
G1 X68.359 Y157.616 E0.01919
G1 X68.196 Y156.865 E0.01917
G1 X68.112 Y156.1 E0.0192
G1 X68.1 Y155.675 E0.01061
G1 X68.1 Y139.911 E0.39323
G1 X68.14 Y139.143 E0.01918
G1 X68.259 Y138.383 E0.01919
G1 X68.457 Y137.64 E0.01918
G1 X68.731 Y136.921 E0.01919
G1 X69.078 Y136.235 E0.01918
G1 X69.494 Y135.588 E0.01919
G1 X69.975 Y134.988 E0.01918
G1 X70.267 Y134.678 E0.01062
G1 X70.384 Y134.561 E0.00413
G1 X70.956 Y134.047 E0.01918
G1 X71.578 Y133.594 E0.01919
G0 F3600 X71.83 Y133.907
G1 F1800 X72.48 Y133.536 E0.01867
G1 X73.166 Y133.237 E0.01867
G1 X73.88 Y133.013 E0.01867
G1 X74.613 Y132.866 E0.01865
G1 X75.617 Y132.794 E0.02511
G1 X89.38 Y132.794 E0.34332
G1 X90.127 Y132.834 E0.01866
G1 X90.865 Y132.953 E0.01865
G1 X91.587 Y133.151 E0.01868
G1 X92.283 Y133.424 E0.01865
G1 X92.946 Y133.771 E0.01867
G1 X93.569 Y134.186 E0.01867
G1 X94.33 Y134.844 E0.0251
G1 X94.447 Y134.961 E0.00413
G1 X94.947 Y135.518 E0.01867
G1 X95.384 Y136.124 E0.01864
G1 X95.755 Y136.774 E0.01867
G1 X96.054 Y137.46 E0.01867
G1 X96.278 Y138.174 E0.01867
G1 X96.425 Y138.907 E0.01865
G1 X96.497 Y139.911 E0.02511
G1 X96.497 Y142.796 E0.07197
G1 X122.503 Y142.796 E0.64872
G1 X122.503 Y139.911 E0.07197
G1 X122.543 Y139.164 E0.01866
G1 X122.662 Y138.426 E0.01865
G1 X122.86 Y137.704 E0.01868
G1 X123.133 Y137.008 E0.01865
G1 X123.48 Y136.345 E0.01867
G1 X123.895 Y135.722 E0.01867
G1 X124.553 Y134.961 E0.0251
G1 X124.67 Y134.844 E0.00413
G1 X125.227 Y134.344 E0.01867
G1 X125.833 Y133.907 E0.01864
G1 X126.483 Y133.536 E0.01867
G1 X127.169 Y133.237 E0.01867
G1 X127.883 Y133.013 E0.01867
G1 X128.616 Y132.866 E0.01865
G1 X129.62 Y132.794 E0.02511
G1 X143.383 Y132.794 E0.34332
G1 X144.13 Y132.834 E0.01866
G1 X144.868 Y132.953 E0.01865
G1 X145.59 Y133.151 E0.01868
G1 X146.286 Y133.424 E0.01865
G1 X146.949 Y133.771 E0.01867
G1 X147.572 Y134.186 E0.01867
G1 X148.333 Y134.844 E0.0251
G1 X148.45 Y134.961 E0.00413
G1 X148.95 Y135.518 E0.01867
G1 X149.387 Y136.124 E0.01864
G1 X149.758 Y136.774 E0.01867
G1 X150.057 Y137.46 E0.01867
G1 X150.281 Y138.174 E0.01867
G1 X150.428 Y138.907 E0.01865
G1 X150.5 Y139.911 E0.02511
G1 X150.5 Y155.675 E0.39323
G1 X150.46 Y156.422 E0.01866
G1 X150.341 Y157.16 E0.01865
G1 X150.143 Y157.882 E0.01868
